X:3164
L:1/8
M:4/4
K:C
[M:6/8][K:A] .abc (A/B/) | cAF FEC | EAc ecA | def edc | cBB Bed | cea ecA | daf ecA | dfd ced | 
 cAA A2 :: (c/d/) | eaa agf | ecA Ace | fbb b2 a | gee efg | aba gag | fgf efg | aec Bed | 
 cAA A2 :|

